assets/svg/logo.svg

<svg width="51" height="21" viewBox="0 0 51 21" fill="none" xmlns="http://www.w3.org/2000/svg">
<path d="M28.02 14L31.22 7H31.95L35.15 14H34.37L31.43 7.43H31.73L28.79 14H28.02ZM29.28 12.13L29.5 11.53H33.57L33.79 12.13H29.28ZM35.0157 14L37.8857 10.12V10.69L35.1857 7H36.0357L38.3057 10.08L37.9757 10.09L40.2457 7H41.0457L38.3757 10.64V10.12L41.2357 14H40.3757L37.9557 10.71H38.2657L35.8657 14H35.0157ZM42.3041 14V7H43.0441V14H42.3041ZM45.9816 10.13H49.6816V10.76H45.9816V10.13ZM46.0616 13.36H50.2716V14H45.3216V7H50.1216V7.64H46.0616V13.36Z" fill="black"/>
<path d="M19.9144 0.590179L18.5955 2.77033L18.2929 2.67236C17.1265 2.29436 15.2195 2.36513 14.0991 2.67709L13.8025 2.75976L12.5702 0.673926C11.1251 3.64968 11.1838 5.72533 11.9347 7.05796C12.7386 8.48487 14.4001 9.1673 16.1936 9.14513C18.288 9.11909 20.0164 8.30015 20.7928 6.81648C21.5197 5.42721 21.4667 3.35939 19.9144 0.590222L19.9144 0.590179ZM13.9192 4.91223C14.712 4.91653 15.1807 5.57129 15.2711 6.48678C13.6765 7.25635 12.9523 6.63279 12.6425 5.34618C13.1316 5.04269 13.5588 4.9103 13.9191 4.91219L13.9192 4.91223ZM18.6139 4.91223C18.9742 4.9103 19.4015 5.04269 19.8905 5.34622C19.5807 6.63279 18.8565 7.25635 17.262 6.48678C17.3524 5.57129 17.8212 4.91649 18.6139 4.91223H18.6139ZM6.00034 7.10192C5.94766 7.10149 5.89524 7.10179 5.84307 7.10269C4.54649 7.12573 3.43072 7.55773 2.58849 8.24455C0.721758 9.76693 0.127672 12.5737 2.03746 15.3856C2.90943 16.8463 3.94665 17.7162 5.07952 18.1436C6.49104 18.6762 7.9436 18.5228 9.37382 18.3204C10.804 18.118 12.2035 17.8637 13.5373 17.9586C14.8711 18.0537 16.2052 18.396 17.4262 19.7274C18.2587 20.6351 19.4409 19.6575 18.4497 18.6895C16.9448 17.2196 15.3333 16.6519 13.7499 16.5393C12.1665 16.4267 10.6476 16.7412 9.27228 16.9358C7.89698 17.1305 6.68247 17.2174 5.63893 16.8237C5.02061 16.5904 4.42257 16.1877 3.85358 15.4856H18.9676C19.5551 13.2386 19.6064 10.9151 19.0481 9.3809C18.1988 9.7457 17.2257 9.93519 16.2035 9.94796H16.2034C14.9208 9.96385 13.6486 9.6504 12.641 8.96728C12.4335 9.10183 12.2288 9.24058 12.0269 9.38343L11.7805 9.55776L11.5446 9.36947C9.54101 7.77103 7.63328 7.11447 6.00038 7.10188L6.00034 7.10192Z" fill="#6585F1"/>
</svg>

<?xml version="1.0"?>
<svg width="51" height="21" xmlns="http://www.w3.org/2000/svg" xmlns:svg="http://www.w3.org/2000/svg">
 <g class="layer">
  <title>Layer 1</title>
  <path d="m19.91,0.59l-1.31,2.18l-0.31,-0.1c-1.16,-0.38 -3.07,-0.3 -4.19,0.01l-0.3,0.08l-1.23,-2.09c-1.44,2.98 -1.39,5.06 -0.64,6.39c0.81,1.42 2.47,2.11 4.26,2.09c2.1,-0.03 3.83,-0.85 4.6,-2.33c0.73,-1.39 0.68,-3.46 -0.88,-6.23l0,0zm-5.99,4.32c0.79,0.01 1.26,0.66 1.35,1.58c-1.59,0.77 -2.32,0.14 -2.63,-1.14c0.49,-0.31 0.92,-0.44 1.28,-0.44l0,0zm4.69,0c0.36,0 0.79,0.13 1.28,0.44c-0.31,1.28 -1.03,1.91 -2.63,1.14c0.09,-0.92 0.56,-1.57 1.35,-1.58l0,0zm-12.61,2.19c-0.05,0 -0.1,0 -0.16,0c-1.29,0.03 -2.41,0.46 -3.25,1.14c-1.87,1.53 -2.46,4.33 -0.55,7.15c0.87,1.46 1.91,2.33 3.04,2.75c1.41,0.54 2.86,0.38 4.29,0.18c1.43,-0.2 2.83,-0.46 4.17,-0.36c1.33,0.09 2.67,0.44 3.89,1.77c0.83,0.91 2.01,-0.07 1.02,-1.04c-1.51,-1.47 -3.12,-2.04 -4.7,-2.15c-1.58,-0.11 -3.1,0.2 -4.48,0.4c-1.37,0.19 -2.59,0.28 -3.63,-0.12c-0.62,-0.23 -1.22,-0.63 -1.79,-1.33l15.12,0c0.59,-2.25 0.64,-4.57 0.08,-6.11c-0.85,0.37 -1.82,0.56 -2.85,0.57l0,0c-1.28,0.01 -2.55,-0.3 -3.56,-0.98c-0.21,0.13 -0.41,0.27 -0.61,0.41l-0.25,0.18l-0.24,-0.19c-2,-1.6 -3.91,-2.26 -5.54,-2.27l0,0z" fill="#6585F1" id="svg_2"/>
  <text fill="#000000" font-family="Serif" font-size="24" id="svg_4" stroke-width="0" text-anchor="middle" transform="matrix(0.313201 0 0 0.39214 10.1139 11.0223)" x="82.11" xml:space="preserve" y="7.96">AXALE</text>
 </g>
</svg>
